X: 1
T: The Bunny's Hat
R: reel
M: 4/4
L: 1/8
K: Bmin
FABA cBAF|Bcde fedB|FABF A3F|E~F3 A~B3|
FABA cBAF|Bcde fedB|FABd c~A3|faec dBBA:|
FA (3Bcd efaf|efaf edcA|FA (3Bcd efaf|edcd AB2A|
FA (3Bcd e~f3|aefa bafe|d~B3 cAce|faec dBcA:|


Tune 738	Setting 13820

